svgs/regular/toilet-portable.svg

<svg xmlns="http://www.w3.org/2000/svg" viewBox="0 0 320 512"><!--! Font Awesome Pro 6.4.2 by @fontawesome - https://fontawesome.com License - https://fontawesome.com/license (Commercial License) Copyright 2023 Fonticons, Inc. --><path d="M48 72V96H272V72c0-13.3-10.7-24-24-24H72C58.7 48 48 58.7 48 72zm0 72V432H272V320H248c-13.3 0-24-10.7-24-24V248c0-13.3 10.7-24 24-24h24V144H48zm0 336v8c0 13.3-10.7 24-24 24s-24-10.7-24-24V72C0 32.2 32.2 0 72 0H248c39.8 0 72 32.2 72 72V488c0 13.3-10.7 24-24 24s-24-10.7-24-24v-8H48z"/></svg>

<svg xmlns="http://www.w3.org/2000/svg" viewBox="0 0 320 512"><!--! Font Awesome Pro 6.1.1 by @fontawesome - https://fontawesome.com License - https://fontawesome.com/license (Commercial License) Copyright 2022 Fonticons, Inc. --><path d="M48 480V488C48 501.3 37.25 512 24 512C10.75 512 0 501.3 0 488V72C0 32.24 32.24 0 72 0H248C287.8 0 320 32.24 320 72V488C320 501.3 309.3 512 296 512C282.7 512 272 501.3 272 488V480H48zM48 96H272V72C272 58.75 261.3 48 248 48H72C58.75 48 48 58.75 48 72V96zM48 144V432H272V320H248C234.7 320 224 309.3 224 296V248C224 234.7 234.7 224 248 224H272V144H48z"/></svg>
